X: 39143
T: Robertson's Hornpipe
B: RSCDS Five for 1965
R: reel
B: Kerr's v.2 p.37 #334
Z: T. Traub 9-22-97, revised by John Chambers
M: 4/4
L: 1/8
K: Bb
bf |\
"Bb"d2B2 B2dB | "F"cAF2 F2BA | "Eb"GFED "F"EGFE | "Bb"D2B,2 B,2bf | "Bb"d2B2 B2bf |
"C"g2=e2 c2BA | "C7"Bcd=e fage | "F"f2F2 F2 :: fe | "Bb"dBAB "Bb7"dBAB | "Eb"GEDE "Eb/D"GEDE |
"Cm"cdeg "Eb"fecB | "F"A2F2 F2de | "Bb"fBAB "Eb"gBAB | "Bb"bBAB "Gm"fBAB | "Eb"Ggfe "F"dcBA | "Bb"B2B,2 B,2 :|
%%center Book39/Robertsons_Hornpipe-JC.abc

%%sep 1 1 500
%%sep 1 1 500

